X: 33655
T: Rambling In The Meadow
R: reel
M: 4/4
K: Gmajor
dc|:B2d2 G3A|F3A c3A|G3A/B/ A2GF|G3B D4|
B2d2 G3A|F3A c3A|G3A/B/ A2GF|1 G4 G2dc:|2 G4 G2zd||
|:e3c G2e2|d3B G3d|c3A F3e|d3B/A/ G3d|
e3c G2e2|d3B G3d|c3A F3A|1 G4 G2zd:|2 G4 G4||

